assets/images/script/j-7-e3.svg

<svg fill="none" height="239" viewBox="0 0 301 239" width="301" xmlns="http://www.w3.org/2000/svg"><path d="m184.664 7.16655c-3.814 0-6.607-1.56565-10.366-2.15287-17.447-2.72621-35.52-2.15287-53.104-2.15287-39.2831 0-78.5663 0-117.84958 0-.61378 0 3.5142.97414 3.66785 1.03656 8.49593 3.45147 15.28373 11.61613 21.36923 18.10003 32.8972 35.0512 58.2246 78.5916 67.4567 126.1426 5.4608 28.128 6.9478 64.623-18.6583 84.36-25.2552 19.468-14.4921-45.778-12.5982-52.785 7.8902-29.194 27.7809-63.482 52.3063-81.9684 17.334-13.0651 25.361 2.5154 30.3 18.9774 3.312 11.038 2.312 7.538 3.821 13.25 1.888 7.149 3.204 13.927 6.385 18.419.924 1.304 2.166-11.57 2.233-12.2 1.146-10.802 1.453-13.172 5.373-20.431 10.869-20.1251 34.058-18.0703 54.748-20.8061 23.989-3.1722 53.284.9414 68.732 22.0071 5.264 7.178 9.569 14.691 9.569 23.682 0 6.647-5.867 8.846-6.549 6.117" stroke="#000" stroke-linecap="round" stroke-width="5"/></svg>

<svg width="301" height="239" viewBox="0 0 301 239" fill="none" xmlns="http://www.w3.org/2000/svg">
<path d="M184.664 7.16655C180.85 7.16655 178.057 5.6009 174.298 5.01368C156.851 2.28747 138.778 2.86081 121.194 2.86081C81.9109 2.86081 42.6277 2.86081 3.34442 2.86081C2.73064 2.86081 6.85862 3.83495 7.01227 3.89737C15.5082 7.34884 22.296 15.5135 28.3815 21.9974C61.2787 57.0486 86.6061 100.589 95.8382 148.14C101.299 176.268 102.786 212.763 77.1799 232.5C51.9247 251.968 62.6878 186.722 64.5817 179.715C72.4719 150.521 92.3626 116.233 116.888 97.7466C134.222 84.6815 142.249 100.262 147.188 116.724C150.5 127.762 149.5 124.262 151.009 129.974C152.897 137.123 154.213 143.901 157.394 148.393C158.318 149.697 159.56 136.823 159.627 136.193C160.773 125.391 161.08 123.021 165 115.762C175.869 95.6369 199.058 97.6917 219.748 94.9559C243.737 91.7837 273.032 95.8973 288.48 116.963C293.744 124.141 298.049 131.654 298.049 140.645C298.049 147.292 292.182 149.491 291.5 146.762" stroke="black" stroke-width="5" stroke-linecap="round"/>
</svg>
